tn/mongodb-outline.svg

<svg viewBox="0 0 15 15" fill="none" xmlns="http://www.w3.org/2000/svg" height="1em" width="1em">
  <path d="M7.49998 0.5L7.86855 0.162138C7.77385 0.0588232 7.64013 0 7.49998 0C7.35982 0 7.2261 0.0588232 7.1314 0.162138L7.49998 0.5ZM7.49998 13.5L7.10682 13.8089C7.20161 13.9296 7.34654 14 7.49998 14C7.65341 14 7.79834 13.9296 7.89313 13.8089L7.49998 13.5ZM4.62287 9.83822L4.22971 10.1471H4.22971L4.62287 9.83822ZM4.86869 3.3705L4.50011 3.03263H4.50011L4.86869 3.3705ZM10.1313 3.37049L10.4998 3.03263L10.1313 3.37049ZM10.3771 9.83823L10.7702 10.1471H10.7702L10.3771 9.83823ZM7.99998 15V0.5H6.99998V15H7.99998ZM7.89313 13.1911L5.01602 9.52931L4.22971 10.1471L7.10682 13.8089L7.89313 13.1911ZM5.23726 3.70836L7.86855 0.837862L7.1314 0.162138L4.50011 3.03263L5.23726 3.70836ZM7.1314 0.837862L9.76268 3.70836L10.4998 3.03263L7.86855 0.162138L7.1314 0.837862ZM9.98392 9.52932L7.10682 13.1911L7.89313 13.8089L10.7702 10.1471L9.98392 9.52932ZM9.76268 3.70836C11.2517 5.33278 11.3454 7.79655 9.98392 9.52932L10.7702 10.1471C12.4342 8.02932 12.3198 5.01803 10.4998 3.03263L9.76268 3.70836ZM5.01602 9.52931C3.65457 7.79655 3.74821 5.33278 5.23726 3.70836L4.50011 3.03263C2.68016 5.01804 2.56571 8.02932 4.22971 10.1471L5.01602 9.52931Z" fill="black"/>
</svg>

<svg viewBox="0 0 15 15" fill="none" xmlns="http://www.w3.org/2000/svg" height="1em" width="1em">
  <path d="m7.5.5.369-.338a.5.5 0 0 0-.738 0L7.5.5Zm0 13-.393.309a.5.5 0 0 0 .786 0L7.5 13.5ZM4.623 9.838l-.393.31.393-.31Zm.246-6.467L4.5 3.032l.369.337Zm5.262 0 .369-.338-.369.337Zm.246 6.467.393.31-.393-.31ZM8 15V.5H7V15h1Zm-.107-1.809L5.016 9.53l-.786.618 2.877 3.662.786-.618ZM5.237 3.708 7.87.838 7.13.162 4.5 3.032l.736.676ZM7.131.838l2.632 2.87.737-.675L7.869.163 7.13.837Zm2.853 8.691-2.877 3.662.786.618 2.877-3.662-.786-.618Zm-.221-5.82a4.5 4.5 0 0 1 .22 5.82l.787.618a5.5 5.5 0 0 0-.27-7.114l-.737.675Zm-4.747 5.82a4.5 4.5 0 0 1 .221-5.82L4.5 3.032a5.5 5.5 0 0 0-.27 7.114l.786-.618Z" fill="#000"/>
</svg>
